svg/cellphone_play.svg

<svg xmlns="http://www.w3.org/2000/svg" viewBox="0 0 24 24"><path d="M17 19H7V5h10m0-4H7c-1.11 0-2 .89-2 2v18c0 1.1.9 2 2 2h10c1.1 0 2-.9 2-2V3a2 2 0 0 0-2-2m-7 8v6l4-3z"/></svg>

<?xml version="1.0" encoding="UTF-8"?><!DOCTYPE svg PUBLIC "-//W3C//DTD SVG 1.1//EN" "http://www.w3.org/Graphics/SVG/1.1/DTD/svg11.dtd"><svg xmlns="http://www.w3.org/2000/svg" xmlns:xlink="http://www.w3.org/1999/xlink" version="1.1" id="mdi-cellphone-play" width="24" height="24" viewBox="0 0 24 24"><path d="M17 19H7V5H17M17 1H7C5.89 1 5 1.89 5 3V21C5 22.1 5.9 23 7 23H17C18.1 23 19 22.1 19 21V3C19 1.89 18.1 1 17 1M10 9V15L14 12L10 9Z" /></svg>
